X:1
T:James Gibb editions
T:Gloria in excelsis - Barnby
T:#
%%score [ ( 1 2 ) ( 3 4 ) ] { ( 5 6 ) | ( 7 8 ) }
L:1/8
Q:1/4=95
M:4/4
K:D
V:1 treble nm="Midi_74"
V:2 treble 
V:3 bass nm="Midi_74"
V:4 bass 
V:5 treble nm="Midi_20"
V:6 treble 
V:7 bass 
V:8 bass 
V:1
"^allegro moderato""^Angela Goetze""^Gloria in excelsis""^Joseph Barnby\n(1838-96)" z8 | %1
w: |
!ff! d2 A>A A2 dd | e4 d2 z2 | A2 A>A d2 BB | c6 z2 | c2 c>c f2 cc | d4 (c2 B2) | e2 AA B2 BB | %8
w: Glo- ry to God in the|High- est,|Glo- ry to God let us|sing,|Glo- ry to God in His|Hea- ven, *|Glo- ry to Je- sus, our|
 A6 z2 | z8 | z8 | z8 | z8 | z8 | z8 | z8 | z4 z2!p! A2 | e2 dd c2 BB | B4 A2 (A2 | e2 dd c>c B2) | %20
w: King.||||||||As|love is the law in the|hea- vens, So|love shall be law u- pon|
 (B4 A2) G2 | F2 F"^cresc."F F2 BB | B2 E2 A3 A | A2 ^GA B2 G2 | A6 z2 |!f! A2 A>A d2 BB | %26
w: earth, * By|love shall each man be a|free- man, Born a-|new by the heaven- ly|Birth.|Glo- ry to God in the|
 c4 c2 z2 | B2 BB e2 cB | A6 z2 | A2 F>F G2 =cc | =c4 B2 z2 | B2 ^G3/2 G/ A2 dd | d4 c2 z2 | %33
w: High- est|Glo- ry to God let us|sing,|Glo- ry to God in His|Hea- ven,|glo- ry to God in His|Hea- ven,|
!ff! (d2 c2) (B2 A2) | (G2 F2) E2 B2 | B4 E4 | A8 | D4 z4 | z4 B4 | A8- | !fermata!A8 |] %41
w: Glo\- * ry, *||||||||
V:2
 x4 x4 | F2 A>A A2 FF | G4 F2 z2 | F2 F>F F2 EE | E6 z2 | F2 F>F F2 FF | F4 (E2 F2) | E2 CC F2 EE | %8
 C6 z2 | x8 | x8 | x8 | x8 | x8 | x8 | x8 | x8 | x8 | x8 | x8 | x8 | x8 | x8 | x8 | x4 x4 | %25
 A2 A>A d2 BB | c4 c2 z2 | B2 BB e2 cB | A6 z2 | A2 F>F G2 =cc | =c4 B2 z2 | B2 ^G>G A2 dd | %32
 d4 c2 x2 | d2 c2 B2 A2 | (G2 F2) E2 B2 | B4 E4 | A8 | D4 x4 | z4 G4 | F8- | F8 |] %41
V:3
 z8 | D2 A,>A, A,2 DD | C4 D2 z2 | D2 A,>A, B,2 ^G,G, | A,6 z2 | ^A,2 A,>A, C2 A,A, | %6
w: ||||||
 (B,2 F,2) A,4 | A,2 A,[F,A,] A,2 ^G,G, | A,6 z2 |!f! A,2 A,>A, D2 B,B, | C4 C4 | B,2 B,B, E2 CB, | %12
w: |||Glo- ry to God in the|High- est,|Peace on this earth here be-|
 A,6 z2 | B,2 B,B, C2 F,F, | D4 B,2 ^G,2 |"^cresc." A,2 B,B, C2 DB, | A,6 z2 | z8 | z8 | z8 | %20
w: low;|Je- sus has come to re-|deem us, To|free us from sin and from|woe.~||||
 z4 z2 G,2 | F,2 F,F, F,2 B,B, | B,2 E,2 A,3 A, | A,2 ^G,A, B,2 G,2 | A,6 z2 | %25
w: |||||
!f! A,2 A,>A, D2 B,B, | C4 C2 z2 | B,2 B,B, E2 CB, | A,6 z2 | A,2 F,>F, G,2 =CC | =C4 B,2 z2 | %31
w: ||||||
 B,2 ^G,>G, A,2 DD | D4 C2 z2 |!ff! D2 C2 B,2 A,2 | (G,2 F,2) E,2 B,2 | B,4 E,4 | A,8 | F,4 G,4 | %38
w: |||glo\- * ry to|Je- sus,|our|King. A-|
 A,4 (B,2 C2) | [A,-D]8 | [A,D]8 |] %41
w: men. A\- *|men.||
V:4
 x4 x4 | D,2 A,>A, A,2 D,D, | A,,4 D,2 z2 | D,2 D,>D, B,,2 E,E, | A,6 z2 | F,2 F,>F, ^A,2 F,F, | %6
 B,,4 (C,2 D,2) | C,2 F,F, D,2 E,E, | A,6 z2 | x8 | x8 | x8 | x8 | x8 | x8 | x8 | x8 | x8 | x8 | %19
 x4 x4 | x8 | x8 | x4 x4 | x8 | x8 | A,2 A,>A, D2 B,B, | C4 C2 x2 | B,2 B,B, E2 CB, | A,6 z2 | %29
 A,2 F,>F, G,2 =CC | =C4 B,2 z2 | B,2 ^G,>G, A,2 DD | D4 C2 z2 | (D2 C2) (B,2 A,2) | %34
 (G,2 F,2) E,2 B,2 | B,4 E,4 | A,8 | D,4 E,4 | F,4 G,4 | [D,D]8- | !fermata!D,8 |] %41
V:5
!ff!"^allegro moderato" [A,A]3 [A,A]/[A,A]/ [A,A]2 [A,A]2 | [DFd]2 A>A A2 [DFd]2 | %2
 ([EGe]4 [DFd]2) z2 | [DFA]2 [DFA]2 [DFd]2 [DEB]2 | [CEc]6 z2 | [Fc]2 [Fc]2 [Ff]2 [Fc]2 | %6
 [Fd]4 [Ec]2 [FB]2 | [Ee]2 [CA]2 [FB]2 [EB]2 | [CA]2!mf! A4 A2 | [A,DA]2 [A,DA]2 [A,DA]2 [B,DA]2 | %10
 [CEA]2 [CEA]4 [CEA]2 | [B,DG]2 [B,DG]2 [A,CG]2 [A,CG]2- | [A,CG]2 [A,CG]2 [A,DF]2 x2 | [B,B]4 x4 | %14
 [B,DF]2 [B,DF]4 [=Fd]2 |"^crcj*" [Ec]2 [DFB]2 [CEA]2 [DE^G]2 | [EA]4 A2!p! A2 | %17
 ([CA]2 [DB]2 [Ec]2 [GBe]2) | ([GBe]4 [Aa]2) a2 | ([eae']2 [dad']2 [cgc']2 [Beb]2) | %20
 [B-e-b]4 [Aea]2 g2 | [Fcf]2 [Fcf]2 [FBf]2 [=FB=f]2 | [Ee]4 [^DA^d]4 | [Ee]4 [Ee]4 | %24
!f! A2 AA AAAA | [A,DA][A,DA][A,DA][A,DA] [A,DA][A,DA][B,DA][B,DA] | %26
 [CEA][CEA][CEA][CEA] [CEA][CEA][CEA][CEA] | [B,DG][B,DG][B,DG][B,DG] [A,CG][A,CG][A,DG][A,CG] | %28
 [A,CG][A,CG][CG][CG] [B,DG][B,DG][A,EG][A,EG] | [A,DF][A,DF][DA][DA] [DG][DG][=CD][CD] | %30
 [G,=CE][G,CE][A,CF][A,CF] [B,G][B,G][DA][DA] | [E^G][EG][EB][EB] [EA][EA][DE][DE] | %32
 [A,DF][A,DF][B,^G][B,G] [CA]2 [EAe]2 |!ff! ([DAd]2- [CAc]2 [B,DB]2 [A,=CA]2 | %34
 [G,B,G]2 [A,B,F]2 [B,E]2) [B,DB]2 | [B,DB]4 [B,DE]4 | A8 | D2 (A2 d2 B2 | A2) (d2 g2 e2 | (a8) | %40
 !fermata!a8) |] %41
V:6
 x4 [CG]4- | x4 x4 | x4 x4 | x4 x4 | x8 | x8 | x8 | x8 | x8 | x8 | x8 | x8 | x4 x2 F2- | %13
 F2 E2 [^A,E^A]4 | x4 x4 | x4 x4 | C8 | x8 | x4 x2 A2 | ([GAc]2 [FA]2 [EA]2 [DG]2) | %20
 ([DG]4- [CG]2) [GB]2 | x4 x4 | B2 A2 x4 | A2 ^GA B2 G2 | E2 x2 x4 | x4 x4 | x4 x4 | x8 | x8 | x8 | %30
 x8 | x8 | x8 | x8 | x4 x4 | x4 x4 | [A,C]8 | D6 x2 | D4 [EGB]4 | A8- | A8 |] %41
V:7
 z4 E,4 |"^1" D,2 A,>A, A,2 A,2 | (C4 D2) z2 | A,2 A,2 B,2 ^G,2 | A,6 z2 | ^A,2 A,2 C2 A,2 | %6
 B,2 F,2 A,2 A,2 | A,2 A,2 A,2 ^G,2 | A,2 A,4 A,2 | F,2 F,2 F,2 F,2 | G,2 G,4 A,2 | %11
 A,,2 A,,2 A,,2 A,,2- | A,,2 A,,2 D,2 F,2- | F,2 E,2 F,4 | F,2 F,4 ^G,2 | A,2 B,2 E,2 E,2 | %16
 A,,4 A,2!p! A,2 | (G,2 F,2 E,2 D,2) | (D,4 C,2) z2 | z8 | z4 z2 D2 | E2"^cresc." E2 D2 D2 | %22
 D2 C2 =C4 | [E,!courtesy!^C]4 [E,D]4 | [A,C]2 A,A, A,A,A,A, | %25
 [A,,F,][A,,F,][A,,F,][A,,F,] [A,,F,][A,,F,][A,,F,][A,,F,] | %26
 [A,,G,][A,,G,][A,,G,][A,,G,] [A,,G,][A,,G,][A,,A,][A,,A,] | %27
 A,,A,,A,,A,, [A,,E,][A,,E,][A,,E,][A,,E,] | [A,,E,][A,,E,]A,,A,, B,,B,,C,C, | %29
 D,D,[=C,F,][C,F,] [B,,G,][B,,G,][A,,F,][A,,F,] | [G,,E,][G,,E,]D,D, G,G,[=F,A,][F,A,] | %31
"^cresc." [E,B,][E,B,][D,^G,][D,G,] [C,A,][C,A,][B,,G,][B,,G,] | %32
 [A,,F,][A,,F,]E,E, A,2 [!courtesy!=G,C]2 | [F,A,]2 z2 [F,,D,]2- [F,,^D,]2 | (E,2 F,2 G,2) F,2 | %35
 [E,G,]4 !>!G,2 !>!F,2 | !>![E,G,]8 | F,2 =C2 [E,G,B,]2- [E,G,^C]2 | [F,A,]4 B,2 C2 | [A,DF]8- | %40
 [D,A,DF]8 |] %41
V:8
 z4 (A,,4 | D,,2) z2 z2 D,2 | (A,,4 D,2) z2 | D,2 D,2 B,,2 E,2 | A,6- z2 | F,2 F,2 ^A,2 F,2 | %6
 B,,4 C,2 D,2 | C,2 F,2 D,2 E,2 | A,,2 z2 z4 | A,,2 A,,2 A,,2 A,,2 | A,,2 A,,4 A,,2 | x4 x4 | %12
 x4 x4 | G,,4 F,,4 | B,,2 B,,4 B,,2 | C,2 D,2 x4 | x4 x4 | A,,6 D,2 | x4 x4 | x4 x4 | z4 z2 B,2 | %21
 ^A,2 !tenuto!A,2 B,2 =A,2 | ^G,2 A,2 F,4 | x8 | x8 | x8 | x8 | x8 | x8 | x8 | x8 | x8 | x8 | x8 | %34
 G,,6 E,,2 | A,,8 | A,,8 | D,8- | D,8 | D,4 [D,,D,]4 | !fermata!D,,8 |] %41

